X: 1
T: Sylvia
C: Mike Briggs
R: reel
Z: 2014 John Chambers <jc:trillian.mit.edu>
S: printed page from Sylvia Miskoe's 2014 trip to Wisconsin, in a set for Soldier's Joy
M: C|
L: 1/8
K: D
%% Original layout:
A2 |\
"D"f2d2 "A"edce | "D"f2d2 f2dc | "Em"B2e2 "E7"gfed | "A7"cdcB ABcA | "D"f2d2 "A7"edce |
"D"f2d2 f2dc | "Em"B2e2 "E7"gfed | "A7"cABc d2 :: =c2 | "G"B2d2 gdBG | "D"F2A2 dAFD |
"A7"C2E2 Acec | "D"d2f2 "D7"dfd=c | "G"B2d2 gdBG | "D"F2A2 dAFD | "A7"C2E2 Acec |
"D"d2f2 d2 :: "Variation"A2 | "D"fdAd "A7"edce | "D"fdAf d2dc | "Em"BGBe gf"E7"ed |
"A"cdcB "A7"ABcA | "D"fdAd "A7"edce | "D"fdAf d2dc | "Em"BGBe gf"E7"ed | "A"cABc "D"d2 :|
|: "D7"=c2 | "G"BGBd gdBG | "D"FDFA dAFD | "A7"CA,CE Acec | "D"dAdf "D7"dfd=c |
"G"BGBd gdBG | "D"FDFA dAFD | "A7"CA,CE Acec | "D"dAdf d2 :|
